projects/icons/src/tuiIconVisa.svg

<svg xmlns="http://www.w3.org/2000/svg" id="tuiIconVisa" viewBox="0 0 32 32">
    <g transform="translate(0, 12)">
        <polygon fill="#1a1f71" points="11.2571152 9.30231418 12.8746182 0.158896552 15.4617212 0.158896552 13.843103 9.30231418"></polygon>
        <path d="M23.2261818,0.384023353 C22.7136,0.198784163 21.910497,0 20.9074909,0 C18.3511758,0 16.5504485,1.24011239 16.5351273,3.01744645 C16.5207273,4.33126218 17.8206545,5.06418537 18.8019879,5.50154789 C19.8089697,5.94969969 20.1475394,6.23554534 20.1427394,6.63572925 C20.1363394,7.24861595 19.3385697,7.52862324 18.5949576,7.52862324 C17.5594667,7.52862324 17.0093576,7.39004415 16.1597576,7.04866411 L15.8263758,6.90331253 L15.4632727,8.95019157 C16.0675394,9.20539756 17.1849212,9.42655428 18.3451152,9.43799745 C21.0645818,9.43799745 22.8300121,8.21208393 22.8500848,6.31415289 C22.8598303,5.27403904 22.1705697,4.48245211 20.6780121,3.82991133 C19.7737212,3.4069345 19.2199273,3.12468528 19.2257939,2.69638387 C19.2257939,2.3163306 19.6945455,1.90993468 20.7073455,1.90993468 C21.5533576,1.89727714 22.1661576,2.07499653 22.6436364,2.26023572 L22.8754909,2.3657464 L23.2261818,0.384023353" fill="#1a1f71"></path>
        <path d="M29.8602182,0.167630724 L27.8611394,0.167630724 C27.2418424,0.167630724 26.7784242,0.330450648 26.5064242,0.925869002 L22.6642424,9.30521 L25.380897,9.30521 C25.380897,9.30521 25.8251152,8.17854844 25.9255758,7.9311892 C26.2224485,7.9311892 28.8615273,7.93511257 29.2388364,7.93511257 C29.3162182,8.25519431 29.5536,9.30521 29.5536,9.30521 L31.9541818,9.30521 L29.8602182,0.167630724 Z M26.6700606,6.06100201 C26.8840242,5.53419595 27.7008,3.5050655 27.7008,3.5050655 C27.6855273,3.52939974 27.9131636,2.97569057 28.0438303,2.63239555 L28.2187152,3.42071301 C28.2187152,3.42071301 28.7140848,5.60327531 28.8176,6.0609553 L26.6700606,6.0609553 L26.6700606,6.06100201 Z" fill="#1a1f71"></path>
        <path d="M9.08727273,0.165575625 L6.55442424,6.4007006 L6.28455758,5.13359168 C5.81304242,3.67288305 4.34395152,2.09036307 2.70157576,1.29807553 L5.01755152,9.29442073 L7.75476364,9.29138478 L11.8276848,0.165575625 L9.08727273,0.165575625" fill="#1a1f71"></path>
        <path d="M4.20470303,0.159924101 L0.0330181818,0.159924101 L0,0.35016092 C3.24552727,1.10699799 5.39306667,2.93598978 6.28450909,5.13359168 L5.37740606,0.931847473 C5.2208,0.352869914 4.76659394,0.180101441 4.20470303,0.159924101" fill="#1a1f71"></path>
    </g>
</svg>

<svg xmlns="http://www.w3.org/2000/svg" id="tuiIconVisa" viewBox="0 0 32 32"><g fill="#1a1f71"><path d="M11.257 9.302L12.875.16h2.587l-1.619 9.143zM23.226.384A6.909 6.909 0 0020.907 0c-2.556 0-4.357 1.24-4.372 3.017-.014 1.314 1.286 2.047 2.267 2.485 1.007.448 1.346.734 1.34 1.134-.006.613-.803.893-1.547.893-1.036 0-1.586-.139-2.435-.48l-.334-.146-.363 2.047c.605.255 1.722.477 2.882.488 2.72 0 4.485-1.226 4.505-3.124.01-1.04-.68-1.832-2.172-2.484-.904-.423-1.458-.705-1.452-1.134 0-.38.469-.786 1.481-.786a4.93 4.93 0 011.937.35l.231.106.351-1.982M29.86.168h-1.999c-.62 0-1.083.162-1.355.758l-3.842 8.38h2.717s.444-1.127.545-1.375l3.313.004c.077.32.315 1.37.315 1.37h2.4L29.86.168zM26.67 6.06c.214-.527 1.03-2.556 1.03-2.556-.014.024.213-.53.344-.873l.175.789.599 2.64H26.67zM9.087.166L6.554 6.4l-.27-1.267c-.471-1.461-1.94-3.044-3.582-3.836l2.316 7.996 2.737-.003L11.828.166h-2.74" transform="translate(0 12)"/><path d="M4.205.16H.033L0 .35c3.246.757 5.393 2.586 6.285 4.784L5.377.932C5.221.352 4.767.18 4.205.16" transform="translate(0 12)"/></g></svg>
